X:1
T:Contes divins
T:Les lys bleus
T:Contes divins
T:2. Les Lys Bleus 
T:Holmès, Augusta
T:(Holmès)
T:Creative Commons copyright waiver (CC0 1.0 Universal)
T:Creative Commons copyright waiver (CC0 1.0 Universal)
T:Creative Commons copyright waiver (CC0 1.0 Universal)
T:Creative Commons copyright waiver (CC0 1.0 Universal)
T:Creative Commons copyright waiver (CC0 1.0 Universal)
T:Creative Commons copyright waiver (CC0 1.0 Universal)
C:Holmès, Augusta
Z:(Holmès)
Z:Creative Commons copyright waiver (CC0 1.0 Universal)
L:1/8
Q:1/4=58
M:4/4
K:A
V:1 treble nm="Chant\nVoice"
V:1
"^Andante" z8 | z2 z!p! C C C C C | F2 z F F F F3/2 F/ | D8- | D4- D/ z/ F F F | A8- | A2 F2 E3 D | %7
w: |Dans la cha- pel- le|blanche, aux pieds de la sta-|tu-|e, _ Un beau no-|\- vice|_ est pro- ster-|
 E4- E2 z2 | z2 z E E E E E | C4- C2 z C | =G4- G G G G | _G4- G2 z2 |!<(! (_B4 (3=C2) _E2 _G2 | %13
w: né... _|Et vers le front char-|mant _ d'é-|\- toi- * les  cou- ron-|né _|Monte u- ne pri-|
 !^!_B4!<)! (3(!^!_G2 !^!=C3) !^!B |!f! (^c8 | C2-) C z z2 z!pp! (_D ||[K:Gb] G2 F D E B, C D | %17
w: ère é- * per-|du-|e! _ "Par-|\- don- ne si j'o- se te par-|
 E3/2 F/ E2-) E z (E E | A2 G E (F C) D E | F3/2 G/ F2-) F z z2 | G G F D (E B,) C D | %21
w: ler ain- si, _ O mys-|ti- * que Ro- se qui fleu-|\- ris i- ci! _|Vier- ge sou- ve- rai- ne des au-|
 E3/2 F/ E2- E z!f! =D =C | B3 F (AG) E!p! C | (G2 D2 E3) D | G4- G2 z2 | %25
w: tels en fleurs, _ Im- mor-|\- tel- le Rei- * ne aux|pu- * res pâ-|leurs! _|
!p!"^cresc." G7/2 G/ G3 G | =G4 G4 | =G4- G G F E | =c8 |!f! ^c4- c !^!^C !^!C !^!C | %30
w: L'u- ni- vers im-|plo- re|ta _ di- vi- ni|\- té|Moi, _ si je t'a-|
 (!^!^c3 ^A ^G^E ^G,)!p! ^A, | ^F2 z2!p! =F2 E2 |"^Molto rall." E4 D2- D z |"^A tempo" z8 | z8 | %35
w: do- * * * re C'est|pour ta beau-|té! _ _|||
 z8 | z8 | z8 | z8 | z8 | z8 ||[Q:1/4=50]"^Largo appassionato e rubato" z8 | z8 | z8 | z8 || %45
w: ||||||||||
[Q:1/4=92]"^Andante con moto" z8 | z8 |[Q:1/4=58]"^Tempo I Andante" z8 | z8 | z8 | z8 | z8 | z8 | %53
w: ||||||||
 z8 | z8 | z8 | z8 | z8 | z8 | z8 | z8 ||[K:A][Q:1/4=50]"^Largo estatico" z8 | z8 | z8 | z8 | z8 | %66
w: |||||||||||||
 z8 | z8 | z8 |"^A tempo\n" z8 | z8 | z8 | z8 | z8 | z8 | z8 | z8 | z8 |] %78
w: ||||||||||||

